PortableApps/LibreOfficePortable/App/libreoffice/help/media/icon-themes/cmd/lc_mailmergesavedocuments.svg

<svg viewBox="0 0 24 24" xmlns="http://www.w3.org/2000/svg"><path d="m3 3v16h1v-14c0-.554.446-1 1-1h10v-1zm2 2v16h7v-6-2c0-.554.446-1 1-1h2 2v-7z" fill="#fff"/><path d="m3 2c-.554 0-1 .446-1 1v16c0 .554.446 1 1 1h1v1c0 .554.446 1 1 1h7v-1h-7v-1-1-10-4h12v7h1v-7c0-.554-.446-1-1-1h-1v-1c0-.554-.446-1-1-1zm0 1h12v1h-10c-.554 0-1 .446-1 1v14h-1z" fill="#808080"/><rect fill="#8959ab" height="8" rx="0" ry=".5" width="8" x="13" y="13"/><g fill="#fff"><path d="m14 14h6v3h-6z"/><path d="m15 18c-.554 0-1 .446-1 1v1c0 .554.446 1 1 1v-2h1v2h2c.554 0 1-.446 1-1v-1c0-.554-.446-1-1-1z"/></g></svg>

<svg viewBox="0 0 24 24" xmlns="http://www.w3.org/2000/svg">
  <path
     style="fill:#ffffff"
     d="M 3 3 L 3 19 L 4 19 L 4 5 C 4 4.446 4.446 4 5 4 L 15 4 L 15 3 L 3 3 z M 5 5 L 5 21 L 12 21 L 12 15 L 12 13 C 12 12.446 12.446 12 13 12 L 15 12 L 17 12 L 17 5 L 5 5 z "
     />
  <path
     style="fill:#808080"
     d="M 3 2 C 2.446 2 2 2.446 2 3 L 2 19 C 2 19.554 2.446 20 3 20 L 4 20 L 4 21 C 4 21.554 4.446 22 5 22 L 12 22 L 12 21 L 5 21 L 5 20 L 5 19 L 5 9 L 5 5 L 17 5 L 17 12 L 18 12 L 18 5 C 18 4.446 17.554 4 17 4 L 16 4 L 16 3 C 16 2.446 15.554 2 15 2 L 3 2 z M 3 3 L 15 3 L 15 4 L 5 4 C 4.446 4 4 4.446 4 5 L 4 19 L 3 19 L 3 3 z "
     />
  <rect
     style="fill:#8959ab"
     y="13"
     x="13"
     height="8"
     rx="0"
     ry="0.5"
     width="8"
     />
  <rect
     style="fill:#ffffff"
     y="14"
     x="14"
     width="6"
     height="3"
     />
  <path
     style="fill:#ffffff"
     d="m 15,18 c -0.554,0 -1,0.446 -1,1 v 1 c 0,0.554 0.446,1 1,1 v -2 h 1 v 2 h 2 c 0.554,0 1,-0.446 1,-1 v -1 c 0,-0.554 -0.446,-1 -1,-1 z"
     />
</svg>
